brandFactory_export/1.Light/Llamada saliente_1Light.svg

<?xml version="1.0" encoding="UTF-8"?>
<svg width="24px" height="24px" viewBox="0 0 24 24" version="1.1" xmlns="http://www.w3.org/2000/svg" xmlns:xlink="http://www.w3.org/1999/xlink">
    <title>1.Light/Llamada saliente_1Light</title>
    <g id="Symbols" stroke="none" stroke-width="1" fill="none" fill-rule="evenodd">
        <g id="1.Light/Llamada-saliente_1Light" fill="#5CB615" fill-rule="nonzero">
            <path d="M21.3613445,21.287395 C22.2252101,20.3831933 22.6521008,19.4823529 22.6386555,18.605042 C22.6218487,17.7613445 22.1915966,16.9109244 21.3613445,16.0806723 C21.0487395,15.7613445 20.6957983,15.4823529 20.312605,15.2537815 C19.6067227,14.8168067 18.897479,14.6588235 18.1848739,14.7764706 C17.4621849,14.897479 16.7394958,15.3176471 16.0403361,16.0168067 C15.8722689,16.1815126 15.7142857,16.3596639 15.5663866,16.5478992 C15.5260504,16.5983193 15.4789916,16.6386555 15.4252101,16.6689076 C15.0184874,16.9008403 14.3798319,16.702521 13.4621849,16.0739496 C12.4168067,15.3579832 11.1966387,14.1747899 10.3731092,13.3478992 L10.2756303,13.2537815 C9.44537815,12.4235294 8.26218487,11.2 7.54957983,10.1613445 C6.92436975,9.24369748 6.72941176,8.60168067 6.95798319,8.19831933 C6.98823529,8.14117647 7.03193277,8.0907563 7.08235294,8.05042017 C7.30084034,7.8789916 7.42521008,7.76470588 7.61008403,7.57983193 C8.3092437,6.88067227 8.72605042,6.15798319 8.85042017,5.43529412 C8.97142857,4.72605042 8.81344538,4.01680672 8.37983193,3.32436975 C8.14789916,2.93445378 7.86554622,2.57815126 7.54285714,2.26218487 C6.71260504,1.43193277 5.86218487,1.00168067 5.01848739,0.98487395 L4.96806723,0.98487395 C4.10756303,0.98487395 3.22352941,1.41512605 2.3394958,2.26218487 C2.06722689,2.53445378 1.81848739,2.8302521 1.6,3.14957983 C0.749579832,4.37647059 0.789915966,6.26890756 1.68739496,8.51764706 C2.66554622,10.9647059 4.57478992,13.6571429 7.21008403,16.2957983 L7.22689076,16.312605 L7.31092437,16.3966387 C9.95966387,19.0453782 12.6521008,20.9613445 15.1058824,21.9361345 C17.3344538,22.8268908 19.2504202,22.8705882 20.4336134,22.0537815 C20.6252101,21.9159664 21.0655462,21.5966387 21.3613445,21.287395 L21.3613445,21.287395 Z M22.0571429,15.3815126 C23.0756303,16.4 23.6033613,17.4789916 23.6235294,18.5848739 C23.6436975,19.7310924 23.1260504,20.8672269 22.0739496,21.9663866 C21.7142857,22.3428571 21.2369748,22.6890756 21.0588235,22.8168067 C21.0285714,22.8403361 20.9983193,22.8605042 20.9680672,22.8806723 C20.2655462,23.3680672 19.3579832,23.6235294 18.2957983,23.6235294 C17.2235294,23.6235294 16.0302521,23.3647059 14.7428571,22.8504202 C12.1647059,21.8252101 9.35462185,19.8319328 6.62184874,17.0957983 L6.54453782,17.0184874 L6.52436975,16.9983193 C3.78823529,14.2621849 1.79831933,11.4521008 0.769747899,8.87731092 C-0.25210084,6.31260504 -0.255462185,4.09411765 0.756302521,2.62521008 C0.914285714,2.41008403 1.27058824,1.91596639 1.65714286,1.54621849 C2.75294118,0.497478992 3.8789916,-0.00336134454 5.03529412,-1.68051046e-05 C6.14117647,0.0201680672 7.22016807,0.54789916 8.23865546,1.56638655 C8.64201681,1.97310924 8.97478992,2.39327731 9.22016807,2.81680672 C9.77478992,3.71092437 9.97647059,4.65210084 9.81512605,5.60336134 C9.65714286,6.53445378 9.14621849,7.43529412 8.30252101,8.28235294 C8.16470588,8.42352941 8.02016807,8.55798319 7.86890756,8.68235294 C7.90588235,8.82352941 8.02352941,9.1092437 8.35966387,9.60336134 C9.02521008,10.5747899 10.1680672,11.7546218 10.9680672,12.5546218 L11.0655462,12.6521008 C11.8655462,13.4487395 13.0386555,14.5915966 14.0168067,15.2638655 C14.507563,15.6 14.7966387,15.7142857 14.9378151,15.7546218 C15.0689076,15.6 15.1798319,15.4789916 15.3411765,15.3210084 C16.1882353,14.4739496 17.0890756,13.9663866 18.0168067,13.8084034 C18.9714286,13.6470588 19.9092437,13.8521008 20.8134454,14.4134454 C21.2302521,14.6487395 21.6537815,14.9781513 22.0571429,15.3815126 Z M14.1815126,7.49915966 C14.0537815,7.59663866 13.9932773,7.69747899 13.9798319,7.81512605 C13.9630252,7.93613445 14,8.0605042 14.0806723,8.15462185 L15.2168067,9.41848739 C15.3210084,9.55294118 15.4319328,9.61344538 15.5529412,9.62352941 C15.6672269,9.63361345 15.7815126,9.59663866 15.8655462,9.51596639 L18.9142857,6.89411765 C19.1159664,6.71932773 19.4218487,6.73613445 19.6,6.93781513 L20.2689076,7.67731092 C20.3058824,7.7210084 20.3932773,7.78823529 20.4840336,7.76470588 C20.5848739,7.73445378 20.6184874,7.62689076 20.6285714,7.58319328 L21.5966387,3.05210084 C21.6201681,2.96806723 21.6,2.87731092 21.5428571,2.81008403 C21.4890756,2.75294118 21.4117647,2.71932773 21.3344538,2.72268908 L21.3109244,2.72268908 L16.712605,3.07226891 C16.6554622,3.07563025 16.5512605,3.09915966 16.5142857,3.18991597 C16.4773109,3.28403361 16.5378151,3.37142857 16.5747899,3.41176471 L17.2336134,4.14453782 C17.4151261,4.34957983 17.3983193,4.66218487 17.1932773,4.84369748 C17.1966387,4.84705882 14.1815126,7.49915966 14.1815126,7.49915966 L14.1815126,7.49915966 Z M14.4605042,10.0436975 L13.3512605,8.81344538 C12.8302521,8.23193277 12.8773109,7.33781513 13.4588235,6.81680672 C13.492437,6.78655462 13.5294118,6.75630252 13.5663866,6.72941176 L16.1714286,4.43697479 L15.8420168,4.07394958 C15.5260504,3.7210084 15.4319328,3.24369748 15.5966387,2.82689076 C15.7613445,2.41344538 16.1579832,2.13109244 16.6319328,2.09411765 L21.2268908,1.73781513 L21.3310924,1.73445378 C21.7008403,1.73445378 22.0436975,1.88907563 22.2823529,2.16134454 C22.5445378,2.4605042 22.6453782,2.8605042 22.5579832,3.2605042 L21.589916,7.79159664 C21.492437,8.2487395 21.1663866,8.60504202 20.7361345,8.71932773 C20.2957983,8.8302521 19.8319328,8.68235294 19.5327731,8.34285714 L19.1932773,7.95630252 L16.5310924,10.2453782 C16.2487395,10.5109244 15.8621849,10.6453782 15.4722689,10.605042 C15.0689076,10.5714286 14.702521,10.3663866 14.4605042,10.0436975 L14.4605042,10.0436975 Z" id="Llamada-saliente_1Light"></path>
        </g>
    </g>
</svg>

<svg width="24" height="24" viewBox="0 0 24 24" xmlns="http://www.w3.org/2000/svg"><path d="M21.361 21.287c.864-.904 1.291-1.805 1.278-2.682-.017-.844-.447-1.694-1.278-2.524a5.193 5.193 0 00-1.048-.827c-.706-.437-1.416-.595-2.128-.478-.723.121-1.446.542-2.145 1.24a5.505 5.505 0 00-.474.532.483.483 0 01-.14.12c-.408.233-1.046.035-1.964-.594-1.045-.716-2.265-1.9-3.089-2.726l-.097-.094c-.83-.83-2.014-2.054-2.726-3.093-.626-.917-.82-1.56-.592-1.963a.48.48 0 01.124-.148c.219-.171.343-.285.528-.47.7-.7 1.116-1.422 1.24-2.145.121-.709-.037-1.418-.47-2.11a5.23 5.23 0 00-.837-1.063c-.83-.83-1.68-1.26-2.525-1.277h-.05c-.86 0-1.744.43-2.629 1.277a6.239 6.239 0 00-.739.888c-.85 1.226-.81 3.119.087 5.368.979 2.447 2.888 5.14 5.523 7.778l.017.017.084.084c2.649 2.648 5.341 4.564 7.795 5.54 2.228.89 4.144.934 5.328.117.191-.138.632-.457.927-.767zm.696-5.905c1.019 1.018 1.546 2.097 1.567 3.203.02 1.146-.498 2.282-1.55 3.381-.36.377-.837.723-1.015.85-.03.024-.06.045-.09.065-.703.487-1.611.743-2.673.743-1.072 0-2.266-.26-3.553-.774-2.578-1.025-5.388-3.018-8.121-5.754l-.077-.078-.02-.02C3.787 14.262 1.797 11.452.77 8.878-.252 6.312-.255 4.093.756 2.624c.158-.215.515-.709.901-1.079C2.753.497 3.88-.004 5.035 0 6.141.02 7.22.548 8.24 1.566c.403.407.736.827.981 1.25.555.895.756 1.836.595 2.787-.158.931-.669 1.832-1.512 2.68a5.407 5.407 0 01-.434.4c.037.14.155.426.49.92.666.972 1.81 2.152 2.61 2.952l.097.097c.8.797 1.973 1.94 2.95 2.612.492.336.78.45.922.49.13-.154.242-.275.403-.433.847-.847 1.748-1.355 2.676-1.513.954-.16 1.892.044 2.796.605.417.236.84.565 1.244.969zm-7.875-7.883c-.128.098-.189.198-.202.316a.432.432 0 00.1.34l1.137 1.263c.104.135.215.195.336.206a.399.399 0 00.313-.108l3.048-2.622a.488.488 0 01.686.044l.669.74c.037.043.124.11.215.087.1-.03.134-.138.145-.182l.968-4.53a.264.264 0 00-.054-.243.274.274 0 00-.209-.087h-.023l-4.598.35c-.058.003-.162.026-.199.117-.037.094.024.181.06.222l.66.733a.495.495 0 01-.04.699c.003.003-3.012 2.655-3.012 2.655zm.279 2.545l-1.11-1.23a1.414 1.414 0 01.215-2.085l2.605-2.292-.329-.363c-.316-.353-.41-.83-.245-1.247.164-.414.561-.696 1.035-.733l4.595-.356.104-.004a1.245 1.245 0 011.227 1.526l-.968 4.532a1.2 1.2 0 01-.854.927c-.44.111-.904-.037-1.203-.376l-.34-.387-2.662 2.29c-.282.265-.669.4-1.059.359a1.41 1.41 0 01-1.011-.561z" fill="#5CB615" fill-rule="nonzero"/></svg>
